client/src/assets/plus-solid-green.svg

<?xml version="1.0" encoding="UTF-8"?>
<!DOCTYPE svg PUBLIC "-//W3C//DTD SVG 20010904//EN" "http://www.w3.org/TR/2001/REC-SVG-20010904/DTD/svg10.dtd">
<svg width="107.52pt" height="122.88pt" viewBox="0 0 107.52 122.88" xmlns="http://www.w3.org/2000/svg">
<path transform="matrix(.24 0 0 .24 4.7684e-7 7.68)" d="m416 176h-144v-144c0-17.67-14.33-32-32-32h-32c-17.67 0-32 14.33-32 32v41.412 102.59h-144c-17.67 0-32 14.33-32 32v32c0 17.67 14.33 32 32 32h144v144c0 17.67 14.33 32 32 32h32c17.67 0 32-14.33 32-32v-144h144c17.67 0 32-14.33 32-32v-32c0-17.67-14.33-32-32-32z" fill="currentColor" stroke="#000" stroke-linecap="square" stroke-linejoin="bevel" stroke-opacity="0" stroke-width="0"/>
</svg>

<?xml version="1.0" standalone="no"?>
<!DOCTYPE svg PUBLIC "-//W3C//DTD SVG 20010904//EN" "http://www.w3.org/TR/2001/REC-SVG-20010904/DTD/svg10.dtd">
<!-- Created using Krita: https://krita.org -->
<svg xmlns="http://www.w3.org/2000/svg" 
    xmlns:xlink="http://www.w3.org/1999/xlink"
    xmlns:krita="http://krita.org/namespaces/svg/krita"
    xmlns:sodipodi="http://sodipodi.sourceforge.net/DTD/sodipodi-0.dtd"
    width="107.52pt"
    height="122.88pt"
    viewBox="0 0 107.52 122.88">
<defs/>
<path id="shape0" transform="matrix(0.240000005364418 0 0 0.240000005364418 4.76837167084909e-07 7.68000017166137)" fill="#3ba55d" stroke-opacity="0" stroke="#000000" stroke-width="0" stroke-linecap="square" stroke-linejoin="bevel" d="M416 176C368 176 320 176 272 176C272 128 272 80 272 32C272 14.33 257.67 0 240 0L208 0C190.33 0 176 14.33 176 32C176 45.8039 176 59.6078 176 73.4118C176 107.608 176 141.804 176 176L32 176C14.33 176 0 190.33 0 208L0 240C0 257.67 14.33 272 32 272L176 272L176 416C176 433.67 190.33 448 208 448C218.667 448 229.333 448 240 448C257.67 448 272 433.67 272 416L272 272L416 272C433.67 272 448 257.67 448 240L448 208C448 190.33 433.67 176 416 176Z" sodipodi:nodetypes="cccccccccccccccccccccc"/>
</svg>
